X: 741
T: Old Grey Cat
B: jims roots
M:2/4
L:1/4
Q: 1/4=100
K:G
V:1 
%Q:208
|: "Em"ee E3/2F/ | G/F/G/A/ B/A/B/^c/ | "D"dd D3/2D/ | F/A/d/B/ A/F/E/D/ |
"Em"ee E3/2F/ | G/F/G/A/ B/A/B/^c/ | "Bm"d/^c/B/A/ B/A/G/F/ | "Em"E2 z2:|
|: "Em"Be e3/2d/ | B/d/e/f/ g/f/e/d/ | "D"Ad d3/2B/ | A/B/d/e/ f/e/d/f/ |
"Em"eB "G"gB | "Am"aB "B7"bb/a/ | "Em"g/f/e/d/ "B7"B/A/B/^d/ | "Em"e2 z2:|
% abcbook-tune_id 6298c2793353c0458970113f


% abcbook-boost 0
% abcbook-tablature 
% abcbook-transpose 
% abcbook-lastupdated 1654178425882
% abcbook-soundfonts 
% abcbook-repeats 1


